svgs/thin/gun.svg

<svg xmlns="http://www.w3.org/2000/svg" viewBox="0 0 576 512"><!--! Font Awesome Pro 6.3.0 by @fontawesome - https://fontawesome.com License - https://fontawesome.com/license (Commercial License) Copyright 2023 Fonticons, Inc. --><path d="M544 64h-32V40C512 35.58 508.4 32 504 32S496 35.58 496 40V64H43.17C19.33 64 0 83.33 0 107.2v89.66C0 220.7 19.33 240 43.17 240c21.26 0 36.61 20.35 30.77 40.79l-40.69 158.4C27.41 459.7 42.76 480 64.02 480h119.8c14.29 0 26.84-9.469 30.77-23.21L246.6 336h74.34c17.21 0 32.49-11.02 37.94-27.34l8.711-26.12C369.3 277.4 365.5 272 359.1 272c-3.443 0-6.502 2.203-7.592 5.473l-8.711 26.12C340.4 313.4 331.3 320 320.9 320H250.8L272 240h162.7c8.486 0 16.62-3.373 22.63-9.373L480 208h64c17.67 0 32-14.33 32-32V96C576 78.33 561.7 64 544 64zM199.2 452.4C197.3 459.2 190.1 464 183.9 464H64.02c-5.066 0-9.723-2.32-12.77-6.363c-3.051-4.047-4.002-9.16-2.498-14.45l40.58-158c4.176-14.62 1.32-29.96-7.832-42.09C80.62 241.9 79.51 241.1 78.55 240h176.9L199.2 452.4zM560 176C560 184.8 552.8 192 544 192h-70.63l-27.31 27.31C443 222.3 439 224 434.7 224H43.17C28.19 224 16 211.8 16 196.8V107.2C16 92.19 28.19 80 43.17 80H544c8.822 0 16 7.176 16 16V176zM504 128H72C67.59 128 64 131.6 64 136S67.59 144 72 144h432C508.4 144 512 140.4 512 136S508.4 128 504 128z"/></svg>

<svg xmlns="http://www.w3.org/2000/svg" viewBox="0 0 576 512"><!-- Font Awesome Pro 6.0.0-alpha2 by @fontawesome - https://fontawesome.com License - https://fontawesome.com/license (Commercial License) --><path d="M544 64H512V40C512 35.582 508.418 32 504 32S496 35.582 496 40V64H43.172C19.328 64 0 83.328 0 107.172V196.828C0 220.672 19.328 240 43.172 240H43.174C64.434 240 79.783 260.348 73.941 280.793L33.252 439.207C27.41 459.652 42.76 480 64.02 480H183.863C198.15 480 210.705 470.531 214.631 456.793L246.596 336H320.938C338.148 336 353.43 324.984 358.873 308.66L367.584 282.535C369.312 277.352 365.455 272 359.99 272C356.547 272 353.488 274.203 352.398 277.473L343.687 303.594C340.438 313.406 331.281 320 320.938 320H250.83L272 240H434.746C443.232 240 451.371 236.629 457.373 230.629L480 208H544C561.674 208 576 193.672 576 176V96C576 78.328 561.674 64 544 64ZM199.246 452.398C197.295 459.23 190.969 464 183.863 464H64.02C58.953 464 54.297 461.68 51.246 457.637C48.195 453.59 47.244 448.477 48.748 443.188L89.326 285.188C93.502 270.57 90.646 255.227 81.494 243.094C80.621 241.938 79.508 241.062 78.549 240H255.449L199.246 452.398ZM560 176C560 184.824 552.822 192 544 192H473.373L468.686 196.688L446.062 219.312C443.039 222.336 439.02 224 434.746 224H43.172C28.189 224 16 211.812 16 196.828V107.172C16 92.188 28.189 80 43.172 80H544C552.822 80 560 87.176 560 96V176ZM504 128H72C67.594 128 64 131.594 64 136S67.594 144 72 144H504C508.406 144 512 140.406 512 136S508.406 128 504 128Z"/></svg>
